X: 149
T:Johnny MacGill
% Nottingham Music Database
S:Athole p 141, via EF
M:6/8
K:F
P:A
|:d|"F"cAA AGF|"F"cAA A2d|"F"cAA "C"AGA|"Dm"FDD "C7"D2d|
"F"cAA AGF|"F"cAA AGF|"Gm"G3 "A7"AGA|[1"Dm"FDD D2:|[2 "Dm" FDD D3
|:"Dm"f3 "C/e"g3|"F"afd "F"cAF|"Dm"f3 "C"g3|"Dm"afd "C"dfg|
"F"afa "C"geg|"Dm"fde "C""Bb"f2d|"F"cAF "A7""C/e"G2A|"Dm"FDD D3:|<end>
<start>
